apps/cde-ui/src/assets/logo/instagram.svg

<svg width="48" height="48" viewBox="0 0 48 48" fill="none" xmlns="http://www.w3.org/2000/svg">
<rect width="48" height="48" rx="24" fill="currentColor"/>
<g clip-path="url(#clip0_771_2829)">
<path fill-rule="evenodd" clip-rule="evenodd" d="M19.0527 12.072C20.3324 12.0131 20.7404 12 24 12C27.2596 12 27.6676 12.0142 28.9462 12.072C30.2247 12.1298 31.0975 12.3338 31.8611 12.6295C32.6607 12.9316 33.3862 13.404 33.9862 14.0149C34.5971 14.6138 35.0684 15.3382 35.3695 16.1389C35.6662 16.9025 35.8691 17.7753 35.928 19.0516C35.9869 20.3335 36 20.7415 36 24C36 27.2596 35.9858 27.6676 35.928 28.9473C35.8702 30.2236 35.6662 31.0964 35.3695 31.86C35.0684 32.6608 34.5963 33.3864 33.9862 33.9862C33.3862 34.5971 32.6607 35.0684 31.8611 35.3695C31.0975 35.6662 30.2247 35.8691 28.9484 35.928C27.6676 35.9869 27.2596 36 24 36C20.7404 36 20.3324 35.9858 19.0527 35.928C17.7764 35.8702 16.9036 35.6662 16.14 35.3695C15.3392 35.0683 14.6136 34.5963 14.0138 33.9862C13.4033 33.3869 12.9309 32.6617 12.6295 31.8611C12.3338 31.0975 12.1309 30.2247 12.072 28.9484C12.0131 27.6665 12 27.2585 12 24C12 20.7404 12.0142 20.3324 12.072 19.0538C12.1298 17.7753 12.3338 16.9025 12.6295 16.1389C12.9313 15.3383 13.4041 14.6131 14.0149 14.0138C14.6139 13.4035 15.3387 12.931 16.1389 12.6295C16.9025 12.3338 17.7753 12.1309 19.0516 12.072H19.0527ZM28.8491 14.232C27.5836 14.1742 27.204 14.1622 24 14.1622C20.796 14.1622 20.4164 14.1742 19.1509 14.232C17.9804 14.2855 17.3455 14.4807 16.9222 14.6455C16.3625 14.8636 15.9622 15.1222 15.5422 15.5422C15.144 15.9295 14.8377 16.401 14.6455 16.9222C14.4807 17.3455 14.2855 17.9804 14.232 19.1509C14.1742 20.4164 14.1622 20.796 14.1622 24C14.1622 27.204 14.1742 27.5836 14.232 28.8491C14.2855 30.0196 14.4807 30.6545 14.6455 31.0778C14.8375 31.5982 15.144 32.0705 15.5422 32.4578C15.9295 32.856 16.4018 33.1625 16.9222 33.3545C17.3455 33.5193 17.9804 33.7145 19.1509 33.768C20.4164 33.8258 20.7949 33.8378 24 33.8378C27.2051 33.8378 27.5836 33.8258 28.8491 33.768C30.0196 33.7145 30.6545 33.5193 31.0778 33.3545C31.6375 33.1364 32.0378 32.8778 32.4578 32.4578C32.856 32.0705 33.1625 31.5982 33.3545 31.0778C33.5193 30.6545 33.7145 30.0196 33.768 28.8491C33.8258 27.5836 33.8378 27.204 33.8378 24C33.8378 20.796 33.8258 20.4164 33.768 19.1509C33.7145 17.9804 33.5193 17.3455 33.3545 16.9222C33.1364 16.3625 32.8778 15.9622 32.4578 15.5422C32.0705 15.1441 31.5989 14.8377 31.0778 14.6455C30.6545 14.4807 30.0196 14.2855 28.8491 14.232ZM22.4673 27.6993C23.3233 28.0556 24.2764 28.1037 25.1639 27.8353C26.0514 27.567 26.8182 26.9988 27.3334 26.2279C27.8485 25.457 28.0801 24.5311 27.9884 23.6085C27.8968 22.6858 27.4876 21.8236 26.8309 21.1691C26.4123 20.7507 25.906 20.4303 25.3487 20.2311C24.7914 20.0318 24.1968 19.9586 23.6078 20.0167C23.0188 20.0748 22.45 20.2627 21.9423 20.5671C21.4347 20.8714 21.0008 21.2844 20.672 21.7766C20.3431 22.2687 20.1275 22.8276 20.0406 23.413C19.9536 23.9985 19.9976 24.596 20.1693 25.1624C20.341 25.7288 20.6362 26.2501 21.0335 26.6888C21.4309 27.1275 21.9205 27.4726 22.4673 27.6993ZM19.6385 19.6385C20.2113 19.0658 20.8913 18.6115 21.6396 18.3015C22.3879 17.9915 23.19 17.832 24 17.832C24.81 17.832 25.6121 17.9915 26.3604 18.3015C27.1087 18.6115 27.7887 19.0658 28.3615 19.6385C28.9342 20.2113 29.3885 20.8913 29.6985 21.6396C30.0085 22.3879 30.168 23.19 30.168 24C30.168 24.81 30.0085 25.6121 29.6985 26.3604C29.3885 27.1087 28.9342 27.7887 28.3615 28.3615C27.2047 29.5182 25.6359 30.168 24 30.168C22.3641 30.168 20.7953 29.5182 19.6385 28.3615C18.4818 27.2047 17.832 25.6359 17.832 24C17.832 22.3641 18.4818 20.7953 19.6385 19.6385ZM31.536 18.7505C31.6779 18.6167 31.7916 18.4557 31.8701 18.2771C31.9487 18.0985 31.9907 17.9059 31.9935 17.7108C31.9964 17.5157 31.9601 17.3221 31.8867 17.1412C31.8134 16.9604 31.7045 16.7962 31.5665 16.6582C31.4285 16.5203 31.2643 16.4114 31.0835 16.338C30.9027 16.2647 30.709 16.2283 30.5139 16.2312C30.3188 16.234 30.1263 16.276 29.9477 16.3546C29.7691 16.4332 29.6081 16.5468 29.4742 16.6887C29.2138 16.9648 29.0712 17.3314 29.0768 17.7108C29.0823 18.0903 29.2355 18.4526 29.5038 18.7209C29.7721 18.9892 30.1345 19.1424 30.5139 19.148C30.8933 19.1535 31.26 19.0109 31.536 18.7505Z" fill="white"/>
</g>
</svg>

<svg width="48" height="48" fill="none" xmlns="http://www.w3.org/2000/svg">
  <rect width="48" height="48" rx="24" fill="currentColor"/>
  <g clip-path="url(#clip0_771_2829)">
    <path fill-rule="evenodd" clip-rule="evenodd" d="M19.053 12.072C20.333 12.013 20.74 12 24 12s3.668.014 4.946.072c1.279.058 2.151.262 2.915.558.8.302 1.525.774 2.125 1.385a5.862 5.862 0 0 1 1.384 2.124c.296.764.5 1.636.558 2.913.059 1.282.072 1.69.072 4.948 0 3.26-.014 3.668-.072 4.947-.058 1.277-.262 2.15-.558 2.913a5.887 5.887 0 0 1-1.384 2.126 5.885 5.885 0 0 1-2.125 1.384c-.764.296-1.636.5-2.913.558-1.28.059-1.688.072-4.948.072-3.26 0-3.668-.014-4.947-.072-1.277-.058-2.15-.262-2.913-.558a5.889 5.889 0 0 1-2.126-1.384 5.882 5.882 0 0 1-1.384-2.125c-.296-.764-.5-1.636-.558-2.913C12.013 27.666 12 27.258 12 24c0-3.26.014-3.668.072-4.946.058-1.279.262-2.151.558-2.915.301-.8.774-1.526 1.385-2.125a5.882 5.882 0 0 1 2.124-1.384c.764-.296 1.636-.5 2.913-.558Zm9.796 2.16c-1.265-.058-1.645-.07-4.849-.07s-3.584.012-4.85.07c-1.17.054-1.804.249-2.228.414-.56.218-.96.476-1.38.896a3.72 3.72 0 0 0-.896 1.38c-.165.424-.36 1.058-.414 2.229-.058 1.265-.07 1.645-.07 4.849s.012 3.584.07 4.85c.054 1.17.249 1.804.414 2.228.191.52.498.993.896 1.38.388.398.86.705 1.38.897.424.164 1.058.36 2.229.413 1.265.058 1.644.07 4.849.07s3.584-.012 4.85-.07c1.17-.053 1.804-.249 2.228-.413.56-.219.96-.477 1.38-.897.398-.387.705-.86.897-1.38.164-.424.36-1.058.413-2.229.058-1.265.07-1.645.07-4.849s-.012-3.584-.07-4.85c-.053-1.17-.249-1.804-.413-2.228a3.725 3.725 0 0 0-.897-1.38 3.723 3.723 0 0 0-1.38-.896c-.424-.165-1.058-.36-2.229-.414Zm-6.382 13.467a4.002 4.002 0 0 0 4.364-6.53 4.002 4.002 0 0 0-5.797 5.52c.397.439.887.784 1.433 1.01Zm-2.828-8.06a6.17 6.17 0 0 1 10.06 2 6.167 6.167 0 1 1-10.06-2Zm11.897-.889a1.456 1.456 0 0 0 .03-2.092 1.46 1.46 0 0 0-2.092.03 1.458 1.458 0 0 0 2.062 2.063Z" fill="#fff" class="label"/>
  </g>
</svg>
